src/icons/svg/check.svg

<svg width="20" height="20" fill="none" xmlns="http://www.w3.org/2000/svg"><path d="M14.244 5.465c-.126.057-.431.451-2.994 3.868-2.074 2.766-2.865 3.796-2.894 3.773-2.756-2.265-2.675-2.207-2.953-2.156-.273.049-.504.318-.502.586.002.282.026.307 1.696 1.678.864.71 1.623 1.312 1.686 1.338a.558.558 0 0 0 .473-.017c.126-.057.448-.474 3.196-4.137 1.68-2.241 3.076-4.124 3.102-4.185a.553.553 0 0 0-.017-.463.508.508 0 0 0-.312-.299.56.56 0 0 0-.481.014" fill-rule="evenodd" fill="#000"/></svg>

<svg width="20" height="20" viewBox="0 0 20 20" fill="none" xmlns="http://www.w3.org/2000/svg"><path d="M14.244 5.465 C 14.118 5.522,13.813 5.916,11.250 9.333 C 9.176 12.099,8.385 13.129,8.356 13.106 C 5.600 10.841,5.681 10.899,5.403 10.950 C 5.130 10.999,4.899 11.268,4.901 11.536 C 4.903 11.818,4.927 11.843,6.597 13.214 C 7.461 13.924,8.220 14.526,8.283 14.552 C 8.438 14.617,8.589 14.611,8.756 14.535 C 8.882 14.478,9.204 14.061,11.952 10.398 C 13.632 8.157,15.028 6.274,15.054 6.213 C 15.116 6.063,15.111 5.910,15.037 5.750 C 14.964 5.591,14.890 5.520,14.725 5.451 C 14.562 5.383,14.414 5.388,14.244 5.465 " stroke="none" fill-rule="evenodd" fill="black"></path></svg>
